X:429
T:Leaving Lunga 
C:Joe Buchanan's Scottish Tome - Page 392.0
I:392 0
Z:Carl Allison
C:J. Gordon
R:March
L:1/8
M:2/4
K:A
c/>B/ | "Aa"Aa "C#"a>e | "D"f/>e/f/<a/ "E"e2 | "A"A/>A/A/>B/ "F#"c/<A/"F#m"c/<e/ | "B"d/>f/e/>c/ "E"B/<d/c/>B/ |
"A"Aa "C#"a>e | "D"f/>e/f/<a/ "E"e2 | "A"c/>d/e/>c/ "E"B/<d/c/>B/ | "A"A2 A :|
c/>d/ | "A"e/>d/c/>B/ "C#"Aa/>g/ | "D"f/>e/f/<a/ "E"dc/>d/ | "A"e/>f/e/>c/ "E"A/>B/c/<A/ | "F#"c/>e/e/>c/ "E"Bc/<d/  |
"A"e/>d/c/>B/ "C#"Aa/>g/ | "D"f/>e/f/<a/ "D"d>a | "E"c/>d/e/>c/ "E"B/>d/c/>B/ | "A"A2 A :|
c/>B/ | "A"Aa "C#"a>e | "D"f/>e/"B"f/<g/ "A"a2 | "A"c/>A/A/>c/ "F#"Ae/"C#">A/ | "B"f/>e/d/>c/ "E"B/<a/d/>B/ |
"A"c/>d/e/>f/ "C#"e/>A/e/>c/ | "D"d/>e/f/>a/ "Eb"a/>g/"Adim"f/<a/ | "E"c/>d/e/>c/ "E"B/<d/c/>B/ | "A"A2 A :|
f/>g/ | "A"a2 "E"ae/>d/ | "A"c/>A/c/<e/ "C#"f/>e/c/<e/ | "D"a/>A/a/>d/ "C#"c/<A/c/<e/  | "B"d/>f/e/>c/ "E"Bf/<g/ |
"A"a2 "E"ae/>d/ | "A"c/<A/c/<e/ "C#"f/>e/c/<e/ | "F#"c/>d/e/>c/ "E"B/<d/c/>B/ | "A"A2 Af/>g/ |
"A"a2 "E"ae/>d/ | "A"c/<A/c/<e/ "C#"f/>e/c/<e/ | "D"a/>A/a/>d/ "C#"c/<A/c/<e/ | "B"d/>f/e/>c/ "E"B/<d/c/>B/ |
"A"Aa "C#"a>e | "D"f/>e/f/<a/ "E"e2 |  "F#"c/>d/e/>c/ "E"B/<d/c/>B/ | A2 A |]

